X:184
T:The Way You Look Tonight
C:
N:TablEdited by Alan Howard
L:1/8
Q:1/4=125
M:4/4
K:D
|: "D"[a8d8F8] | "Bmin"[d8F8B,8] | "G6"[e2B2D2] f2 "Emin"[g2B2E2] f2 | "A7"[e4c4G4] A4 | 
"D"[f2A2D2] g2 "Dmaj7"[a2c2D2] g2 | "B7"[f4A4^D4] =c4 | "Emin"[g2B2E2] a2 "Emin7"[b2e2D2] a2 | 
"A7"[g2c2E2] [a2c2G2] "Bmin7"[b2d2A2] "C#min7"[c'2e2B2] | "D7"[d'8f8=c8] | "D7"[d8F8=C8] | 
"G6"[e2B2D2] f2 "D6"[a2B2D2] g2 | "D11"[f4A4G4] "A7"[e4c4G4] | "D"[d2F2A,2] [a2d2F2] "D6"[b4d4F4] | 
z2 "Emin"[g2B2E2] "A"[a4c4E4] | z2 "D"[d2F2A,2] "Emin7"[e4B4D4] | z2 "Emin"[B2E2G,2] "A7"[c2E2G,2] [e2c2G2] :| "F"[a4=c4=F4] [a4c4F4] | 
"F#dim"[a4=c4F4] [a4c4F4] | "Gmin"[a2^A2D2] =c'2 ^a2 "C7"[g2A2E2] | z8 | "F9"[g2A2=F2] a2 =f2 "Amin"[e2A2G2] | 
z4 "G#half-dim"[=f4^G4D4] | "Bflat"[d'8=f8^A8] | "C7"[=c'8e8^A8] | "F"[=c'4=f4A4] [c'4f4A4] | 
"Fmin"[=c'4=f4^G4] [c'4f4G4] | "G11"[=c'2d2G2] d'2 ^a2 "C6"[=a2=c2E2] | z8 | "F9"[g2A2=F2] a4 =f2 | 
"Fmaj7"[e4A4=F4] "Dmin"[=f4A4D4] | "A7sus"[a8d8G8] | "A7"[a8c8G8] | "D"[a8d8F8] | 
"Bmin"[d8F8B,8] | "G6"[e2B2D2] f2 "Emin"[g2B2E2] f2 | "A7"[e4c4G4] A4 | "D"[f2A2D2] g2 "Dmaj7"[a2c2D2] g2 | 
"B7"[f4A4^D4] =c4 | "Emin"[g2B2E2] a2 "Emin7"[b2e2D2] a2 | "A7"[g2c2E2] [a2c2G2] "Bmin7"[b2d2A2] "C#min7"[c'2e2B2] | 
"D7"[d'8f8=c8] | "D7"[d8F8=C8] | "G6"[e2B2D2] f2 "D6"[a2B2D2] g2 | "D11"[f4A4G4] "A7"[e4c4G4] | 
"D"[d8F8A,8] | z8 | 


